Dominus_Dark_Funeral/scalable/actions/run-build-install-root.svg

<svg xmlns="http://www.w3.org/2000/svg" width="24" height="24" version="1"><g fill="#f0f"><path d="M10.12.6c-.23.01-.38.24-.36.66l.08 1.58c.03.67-.48 1.1-1.14.96l-3.5-.73c-.66-.14-.9.2-.54.77l.86 1.34c.36.56.14 1.19-.5 1.4l-3.4 1.1c-.64.21-.67.64-.08.94l1.41.73c.6.3.72.96.27 1.46L.83 13.48c-.44.5-.26.88.4.85l1.59-.08c.67-.02 1.1.48.96 1.14l-.73 3.5c-.14.65.2.9.77.53l1.34-.85c.56-.36 1.19-.14 1.4.5l1.1 3.4c.22.63.64.67.94.07l.73-1.4c.3-.6.97-.72 1.47-.28l.19.18L20.6 9.67c-.27-.2-.4-.55-.32-.95l.74-3.5c.14-.66-.21-.9-.77-.54l-1.34.86c-.56.36-1.2.14-1.4-.5l-1.11-3.4c-.21-.64-.63-.67-.94-.08l-.73 1.41c-.3.6-.96.72-1.46.27L10.61.85c-.19-.16-.36-.24-.5-.24zm1.8 10.15a1.36 1.36 0 1 1 0 2.72 1.36 1.36 0 0 1 0-2.72z"/><path d="M23.5 18.95l-4.76-5.5-4.75 5.5h2v4.5h5.5v-4.5z" overflow="visible" style="marker:none"/></g></svg>

<?xml version="1.0" encoding="UTF-8" standalone="no"?>
<svg
   xmlns:dc="http://purl.org/dc/elements/1.1/"
   xmlns:cc="http://creativecommons.org/ns#"
   xmlns:rdf="http://www.w3.org/1999/02/22-rdf-syntax-ns#"
   xmlns:svg="http://www.w3.org/2000/svg"
   xmlns="http://www.w3.org/2000/svg"
   xmlns:sodipodi="http://sodipodi.sourceforge.net/DTD/sodipodi-0.dtd"
   xmlns:inkscape="http://www.inkscape.org/namespaces/inkscape"
   width="24"
   height="24"
   version="1"
   id="svg8"
   sodipodi:docname="run-build-install-root.svg"
   inkscape:version="0.92.4 (5da689c313, 2019-01-14)">
  <metadata
     id="metadata14">
    <rdf:RDF>
      <cc:Work
         rdf:about="">
        <dc:format>image/svg+xml</dc:format>
        <dc:type
           rdf:resource="http://purl.org/dc/dcmitype/StillImage" />
        <dc:title></dc:title>
      </cc:Work>
    </rdf:RDF>
  </metadata>
  <defs
     id="defs12" />
  <sodipodi:namedview
     pagecolor="#ffffff"
     bordercolor="#666666"
     borderopacity="1"
     objecttolerance="10"
     gridtolerance="10"
     guidetolerance="10"
     inkscape:pageopacity="0"
     inkscape:pageshadow="2"
     inkscape:window-width="1112"
     inkscape:window-height="480"
     id="namedview10"
     showgrid="false"
     inkscape:zoom="9.8333333"
     inkscape:cx="1.0677966"
     inkscape:cy="12"
     inkscape:window-x="0"
     inkscape:window-y="25"
     inkscape:window-maximized="0"
     inkscape:current-layer="svg8" />
  <g
     id="g6"
     style="fill:#ff00ff">
    <path
       d="M 10.12,0.6 C 9.89,0.61 9.74,0.84 9.76,1.26 L 9.84,2.84 C 9.87,3.51 9.36,3.94 8.7,3.8 L 5.2,3.07 C 4.54,2.93 4.3,3.27 4.66,3.84 l 0.86,1.34 c 0.36,0.56 0.14,1.19 -0.5,1.4 l -3.4,1.1 C 0.98,7.89 0.95,8.32 1.54,8.62 l 1.41,0.73 c 0.6,0.3 0.72,0.96 0.27,1.46 l -2.39,2.67 c -0.44,0.5 -0.26,0.88 0.4,0.85 l 1.59,-0.08 c 0.67,-0.02 1.1,0.48 0.96,1.14 l -0.73,3.5 c -0.14,0.65 0.2,0.9 0.77,0.53 l 1.34,-0.85 c 0.56,-0.36 1.19,-0.14 1.4,0.5 l 1.1,3.4 c 0.22,0.63 0.64,0.67 0.94,0.07 l 0.73,-1.4 c 0.3,-0.6 0.97,-0.72 1.47,-0.28 L 10.99,21.04 20.6,9.67 C 20.33,9.47 20.2,9.12 20.28,8.72 l 0.74,-3.5 C 21.16,4.56 20.81,4.32 20.25,4.68 l -1.34,0.86 c -0.56,0.36 -1.2,0.14 -1.4,-0.5 L 16.4,1.64 C 16.19,1 15.77,0.97 15.46,1.56 l -0.73,1.41 c -0.3,0.6 -0.96,0.72 -1.46,0.27 L 10.61,0.85 C 10.42,0.69 10.25,0.61 10.11,0.61 Z m 1.8,10.15 a 1.36,1.36 0 1 1 0,2.72 1.36,1.36 0 0 1 0,-2.72 z"
       id="path2"
       inkscape:connector-curvature="0" />
    <path
       d="m 23.5,18.95 -4.76,-5.5 -4.75,5.5 h 2 v 4.5 h 5.5 v -4.5 z"
       overflow="visible"
       style="overflow:visible;marker:none"
       id="path4"
       inkscape:connector-curvature="0" />
  </g>
</svg>
